X: 4
T: MacArthur Road
R: reel
M: 4/4
L: 1/8
K: Dmaj
|: dA A2 ABde | f2 fd edBd | e2 ef edBd | effd edBe |dA A2 ABde | f2 fd edBd | e2 ef edBA | Bdde d3e :||: fA A2 fAgA | fAgA fdBd | e2 ef edBd | effd edBe |fA A2 fAgA | fAgA fdBd | e2 ef edBA | Bdde d3e |fA A2 fAgA | fAgA fdBd | e2 ef edBd | effd edBe |dA A2 ABde | f2 fd edBd | e2 ef edBA | Bdde d3e ||


Tune 2221	Setting 2221

